rospo-light/16x16/places/user-desktop-symbolic.svg

<svg height="22" width="22" xmlns="http://www.w3.org/2000/svg"><path d="m3 16.714286c0 .628571.5142857 1.142857 1.1428571 1.142857h13.7142859c.628571 0 1.142857-.514286 1.142857-1.142857v-11.4285717c0-.6285714-.514286-1.1428572-1.142857-1.1428572h-13.7142859c-.6285714 0-1.1428571.5142858-1.1428571 1.1428572zm10.285714-1.142857v-4.571429h1.714286l1.714286 1.714286v2.857143z" fill="#5c616c" stroke-width="1.142857"/></svg>

<?xml version="1.0" encoding="UTF-8" standalone="no"?>
<svg
   xmlns:dc="http://purl.org/dc/elements/1.1/"
   xmlns:cc="http://creativecommons.org/ns#"
   xmlns:rdf="http://www.w3.org/1999/02/22-rdf-syntax-ns#"
   xmlns:svg="http://www.w3.org/2000/svg"
   xmlns="http://www.w3.org/2000/svg"
   xmlns:sodipodi="http://sodipodi.sourceforge.net/DTD/sodipodi-0.dtd"
   xmlns:inkscape="http://www.inkscape.org/namespaces/inkscape"
   width="22"
   height="22"
   version="1.1"
   id="svg4"
   sodipodi:docname="user-desktop-symbolic.svg"
   inkscape:version="0.92.1 r">
  <metadata
     id="metadata10">
    <rdf:RDF>
      <cc:Work
         rdf:about="">
        <dc:format>image/svg+xml</dc:format>
        <dc:type
           rdf:resource="http://purl.org/dc/dcmitype/StillImage" />
      </cc:Work>
    </rdf:RDF>
  </metadata>
  <defs
     id="defs8" />
  <sodipodi:namedview
     pagecolor="#ffffff"
     bordercolor="#666666"
     borderopacity="1"
     objecttolerance="10"
     gridtolerance="10"
     guidetolerance="10"
     inkscape:pageopacity="0"
     inkscape:pageshadow="2"
     inkscape:window-width="769"
     inkscape:window-height="480"
     id="namedview6"
     showgrid="false"
     inkscape:zoom="10.727273"
     inkscape:cx="11"
     inkscape:cy="11"
     inkscape:window-x="0"
     inkscape:window-y="0"
     inkscape:window-maximized="0"
     inkscape:current-layer="svg4" />
  <path
     style="fill:#5c616c;stroke-width:1.14285719"
     d="m 3,16.714286 c 0,0.628571 0.5142857,1.142857 1.1428571,1.142857 H 17.857143 C 18.485714,17.857143 19,17.342857 19,16.714286 V 5.2857143 C 19,4.6571429 18.485714,4.1428571 17.857143,4.1428571 H 4.1428571 C 3.5142857,4.1428571 3,4.6571429 3,5.2857143 Z M 13.285714,15.571429 V 11 H 15 l 1.714286,1.714286 v 2.857143 z"
     id="path2"
     inkscape:connector-curvature="0" />
</svg>
